!!!COM: Music21
!!!OTL: Jota de Pontevedra
!!!OMV: pezas_jotas_jota-de-pontevedra_jota-de-pontevedra-partitura.musicxml
**kern
*part1
*staff1
*I"Bagpipes
*I'Bag
*clefG^2
*k[]
*M3/4
=1
!LO:TX:a:t=Prestissimo
*MM220
!LO:TX:a:t=[quarter]=220
4r
8eeL
8ddJ
8eeL
8ffJ
=||
4.gg
24aaLL
24gg
24ffJJ
[4ee
=
8eeL]
8ffJ
4.gg
8ee
=
4.ff
24ggLL
24ff
24eeJJ
[4dd
=
4dd]
8ddL
8eeJ
8ffL
8ggJ
=
4.aa
24bbLL
24aa
24ggJJ
[4ff
!!linebreak:original
=
8ffL]
8ggJ
4.aa
8ff
!!linebreak:original
=
4.gg
24aaLL
24gg
24ffJJ
[4ee
=
4ee]
8eeL
8ddJ
8eeL
8ffJ
=
4.gg
24aaLL
24gg
24ffJJ
[4ee
=
8eeL]
8ffJ
4.gg
8ee
=
4.ff
24ggLL
24ff
24eeJJ
[4dd
=
4dd]
8ffL
8ggJ
8aaL
8bbJ
=
4gg
8eeL
8ffJ
8ggL
8aaJ
!!linebreak:original
=
4ff
8ddL
8eeJ
8ffL
8ggJ
=
[2.ee
=
4ee]
8eeL
8ddJ
8eeL
8ffJ
=||
4.gg
24aaLL
24gg
24ffJJ
[4ee
=
8eeL]
8ffJ
4.gg
8ee
=
4.ff
24ggLL
24ff
24eeJJ
[4dd
=
4dd]
8ddL
8eeJ
8ffL
8ggJ
!!linebreak:original
=
4.aa
24bbLL
24aa
24ggJJ
[4ff
=
8ffL]
8ggJ
4.aa
8ff
!!pagebreak:original
=
4.gg
24aaLL
24gg
24ffJJ
[4ee
=
4ee]
8eeL
8ddJ
8eeL
8ffJ
=
4.gg
24aaLL
24gg
24ffJJ
[4ee
=
8eeL]
8ffJ
4.gg
8ee
=
4.ff
24ggLL
24ff
24eeJJ
[4dd
=
4dd]
8ffL
8ggJ
8aaL
8bbJ
=
4gg
8eeL
8ffJ
8ggL
8aaJ
!!linebreak:original
=
4ff
8ddL
8eeJ
8ffL
8ggJ
=||
[2.ee
=
2ee]
4gg
=||
4ff
4ff
4gg
=
2ee
4ff
=
12ddL
12ee
12ddJ
[2cc
=
2cc]
4dd
=
4ee
4ee
4dd
!!linebreak:original
=
2ee
4ff
=
4gg
8ggL
8ffJ
8eeL
8ffJ
=
[2.gg
=
2gg]
4bb
=
4aa
4aa
4bb
=
2gg
4aa
=
12ffL
12gg
12ffJ
[2ee
=
2ee]
4ee
=||
4aa
8aaL
8ggJ
8ffL
8ggJ
=
4aa
4bb
4r
!!linebreak:original
=
4gg
8ggL
8ffJ
8eeL
8ffJ
!!linebreak:original
=
4gg
4aa
4r
=
4ff
8ffL
8eeJ
8ddL
8eeJ
=
4ff
2gg
=
4aa
[2gg
=
2gg]
4ee
=||
4aa
8aaL
8ggJ
8ffL
8ggJ
=
4aa
4bb
4r
=
4gg
8ggL
8ffJ
8eeL
8ffJ
!!linebreak:original
=
4gg
4aa
4r
=
4ff
8ffL
8eeJ
8ddL
8eeJ
=
4ff
2gg
=
4ff
[2ee
=
4ee]
8eeL
8ddJ
8eeL
8ffJ
=||
2ee
4gg
=
8ccc
8r
2r
==
*-
!!!system-decoration: s1,s2
